X: 25
T: No_123_"I_Will_Be_a_Great_Warrior".krn
N: Derived from No_123_"I_Will_Be_a_Great_Warrior".krn
%%abc-version 2.0
%%abcx-abcm2ps-target-version 5.9.1 (29 Sep 2008)
%%abc-creator hum2abc beta
%%abcx-conversion-date 2019/03/15 08:36:13
%%humdrum-veritas 2586322309
%%humdrum-veritas-data 2384203620
%%linebreak <none>
%%barnumbers 0
L: 1/16
M: 3/4
K: D clef=bass
[K:clef=bass][M:3/4]z8z2 B,B, | 
B,A,3 A,F,3 F, z A,A, ||  
[M:2/4]F,A,A,A, F,2 z2 | 
E,4D, z E,E, | 
F,F,F,F, F,2 z2 | 
E,4F,2 z A, ||  
[M:7/8]A,2 z A,A,F, z2 A,A,A,F, z2 ||  
[M:2/4]E,4F, z E,E, | 
F,F,F,F, F,2 z2 | 
E,4F,2 z2 |]  



